svg/material-icons/generating_tokens/materialiconsoutlined/24px.svg

<svg xmlns="http://www.w3.org/2000/svg" width="24" height="24" viewBox="0 0 24 24"><path d="M9 4c-4.42 0-8 3.58-8 8s3.58 8 8 8 8-3.58 8-8-3.58-8-8-8zm0 14c-3.31 0-6-2.69-6-6s2.69-6 6-6 6 2.69 6 6-2.69 6-6 6zm3-7.5h-2v5H8v-5H6V9h6v1.5zm8.25-6.75L23 5l-2.75 1.25L19 9l-1.25-2.75L15 5l2.75-1.25L19 1l1.25 2.75zm0 14L23 19l-2.75 1.25L19 23l-1.25-2.75L15 19l2.75-1.25L19 15l1.25 2.75z"/></svg>

<svg xmlns="http://www.w3.org/2000/svg" enable-background="new 0 0 24 24" height="24" viewBox="0 0 24 24" width="24"><rect fill="none" height="24" width="24"/><path d="M9,4c-4.42,0-8,3.58-8,8c0,4.42,3.58,8,8,8s8-3.58,8-8C17,7.58,13.42,4,9,4z M9,18c-3.31,0-6-2.69-6-6s2.69-6,6-6 s6,2.69,6,6S12.31,18,9,18z M12,10.5h-2v5H8v-5H6V9h6V10.5z M20.25,3.75L23,5l-2.75,1.25L19,9l-1.25-2.75L15,5l2.75-1.25L19,1 L20.25,3.75z M20.25,17.75L23,19l-2.75,1.25L19,23l-1.25-2.75L15,19l2.75-1.25L19,15L20.25,17.75z"/></svg>
